X:1743
T:Minuet
C:Jean-Baptiste Lully
O:France
R:Minuet, menuett
Z:Transcribed by Frank Nordberg - http://www.musicaviva.com
F:http://abc.musicaviva.com/tunes/lully-jean-baptiste/lully-minuet02/lully-minuet02-pno2.abc
V:1 Program 1 6 %Harpsichord
V:2 Program 1 6 bass %Harpsichord
M:3/4
L:1/8
K:Dm
V:1
A2|:d^cdefg|a2a2f2|g2g2e2|f2f2d2|^c4a2|b4g2|
V:2
z2|:[F,2D,2] z2 z2|z6|z4 A,,2|D,^C,D,E,F,G,|A,2A,2F,2|G,2G,2E,2|
%
V:1
a4d2|^c=B^cde^c|d6::[c4A4-][f2A2]|[c4A4-][f2A2]|[c4A4-][f2A2]|
V:2
D,2E,2F,2|G,6|F,2A,2D,2::F,,F,F,,F,F,,F,|\
F,,F,F,,F,F,,F,|F,,F,F,,F,F,,F,|
%
V:1
H[c4_B4G4]A2|d^cdefg|a2a2f2|e4f2|d4z2:|
V:2
HE,4 z2|[F,2D,2] z2 z2|A,,^G,,A,,=B,,^C,A,,|D,2D,,2 z2:|
W:
W:
W:  From Musica Viva - http://www.musicaviva.com
W:  the Internet center for free sheet music downloads.
